places/48/folder.svg

<?xml version="1.0" encoding="UTF-8" standalone="no"?>
<svg xmlns:inkscape="http://www.inkscape.org/namespaces/inkscape" xmlns:sodipodi="http://sodipodi.sourceforge.net/DTD/sodipodi-0.dtd" xmlns="http://www.w3.org/2000/svg" xmlns:svg="http://www.w3.org/2000/svg" width="48pt" height="48pt" style="isolation:isolate" version="1.1" viewBox="0 0 48 48" id="svg3" sodipodi:docname="folder.svg" inkscape:version="1.3.2 (091e20ef0f, 2023-11-25)">
   <defs id="defs3">
      <style type="text/css" id="current-color-scheme">
      .ColorScheme-Text {
        color:#ffffff;
      }
      .ColorScheme-Highlight {
        color:#50c9c3;
      }
      </style>
      <linearGradient id="a-3" x2="1" y1="0.5" y2="0.5" gradientTransform="matrix(45,0,0,33.7,-59.976328,-7.2813973)" gradientUnits="userSpaceOnUse">
         <stop stop-color="#50c9c3" offset="0" id="stop1-6"/>
         <stop stop-color="#96deda" offset=".983" id="stop2-7"/>
      </linearGradient>
   </defs>
   <sodipodi:namedview id="namedview3" pagecolor="#ffffff" bordercolor="#666666" borderopacity="1.0" inkscape:showpageshadow="2" inkscape:pageopacity="0.0" inkscape:pagecheckerboard="0" inkscape:deskcolor="#d1d1d1" inkscape:document-units="pt" inkscape:current-layer="svg3" showguides="false">
      <sodipodi:guide position="29.843972,48" orientation="0,-1" id="guide1" inkscape:locked="false"/>
   </sodipodi:namedview>
   <linearGradient id="a" x2="1" y1=".5" y2=".5" gradientTransform="matrix(45 0 0 33.7 1.49 12.8)" gradientUnits="userSpaceOnUse">
      <stop stop-color="#50c9c3" offset="0" id="stop1" style="stop-color:#ffffff;stop-opacity:0;"/>
      <stop stop-color="#96deda" offset="0.98299998" id="stop2" style="stop-color:#ffffff;stop-opacity:0.40000001;"/>
   </linearGradient>
   <path id="path4" d="m 13.889648,11.469727 -7.3901363,0.01025 c -1.3399986,0 -2.5599618,0.528884 -3.4599609,1.379883 C 2.3135515,13.500863 1.5,14.819435 1.5,16.419434 v 25.100097 c 0,2.729998 2.2395145,4.940918 4.9995117,4.940918 H 41.500488 c 2.759998,0 4.999512,-2.21092 4.999512,-4.940918 V 21.319336 c 0,-2.729997 -2.239514,-4.939453 -4.999512,-4.939453 l -15.228515,0.0088 C 22.849568,16.260671 20.22115,14.524367 17.519531,12.619629 16.620532,11.98763 14.999647,11.469727 13.889648,11.469727 Z" style="fill:currentColor;fill-opacity:1" class="ColorScheme-Highlight"/>
   <path d="m 6.5,11.48 c -1.34,0 -2.56,0.529 -3.46,1.38 -0.6998917,2.126911 0.202267,3.266682 2.23,3.54 h 21.3 C 23,16.3658 20.3,14.58 17.52,12.62 16.621,11.988 15,11.47 13.89,11.47 Z M 2.37,13.65 C 2.36167,13.6621 2.3533,13.674 2.3451,13.6862 2.35325,13.674 2.3618,13.6621 2.37,13.65 Z m -0.202,0.324 c -0.0434,0.0748 -0.085,0.15 -0.124,0.227 0.0396,-0.0785 0.0822,-0.153 0.124,-0.227 z M 1.975,14.345 C 1.9207,14.46 1.871,14.577 1.826,14.697 1.8718,14.576 1.9225,14.459 1.975,14.345 Z M 1.783,14.814 C 1.7384,14.941 1.6999,15.072 1.666,15.203 1.7008,15.07 1.7391,14.94 1.783,14.814 Z m -0.148,0.504 c -0.03,0.129 -0.0522,0.261 -0.0718,0.394 0.02,-0.133 0.0418,-0.266 0.0718,-0.394 z m -0.0981,0.563 c -0.02,0.179 -0.0322,0.361 -0.0322,0.546 -3.73e-4,-0.186 0.012,-0.368 0.0322,-0.546 z" fill="#37a29c" id="path2" sodipodi:nodetypes="ccccccccccccccccccccccccc" style="fill:#000000;fill-opacity:0.2"/>
   <path d="m5.27 16.4c-2-0.266-2.92-1.39-2.23-3.54-0.726 0.641-1.54 1.96-1.54 3.56v25.1c0 2.73 2.24 4.94 5 4.94h35c2.76 0 5-2.21 5-4.94v-20.2c0-2.73-2.24-4.94-5-4.94z" fill="url(#a)" id="path3"/>
</svg>

<?xml version="1.0" encoding="UTF-8"?> <svg width="48pt" height="48pt" style="isolation:isolate" version="1.1" viewBox="0 0 48 48" xmlns="http://www.w3.org/2000/svg"><linearGradient id="a" x2="1" y1=".5" y2=".5" gradientTransform="matrix(45 0 0 33.7 1.49 12.8)" gradientUnits="userSpaceOnUse"><stop stop-color="#50c9c3" offset="0"/><stop stop-color="#96deda" offset=".983"/></linearGradient><path d="m6.5 11.5c-1.34 0-2.56 0.529-3.46 1.38-0.679 2.15 0.239 3.27 2.23 3.54h21.3c-3.57-0.0342-6.27-1.82-9.05-3.78-0.899-0.632-2.52-1.15-3.63-1.15zm-4.13 2.17c-0.00833 0.0121-0.0167 0.024-0.0249 0.0362 0.00815-0.0122 0.0167-0.0241 0.0249-0.0362zm-0.202 0.324c-0.0434 0.0748-0.085 0.15-0.124 0.227 0.0396-0.0785 0.0822-0.153 0.124-0.227zm-0.193 0.371c-0.0543 0.115-0.104 0.232-0.149 0.352 0.0458-0.121 0.0965-0.238 0.149-0.352zm-0.192 0.469c-0.0446 0.127-0.0831 0.258-0.117 0.389 0.0348-0.133 0.0731-0.263 0.117-0.389zm-0.148 0.504c-0.03 0.129-0.0522 0.261-0.0718 0.394 0.02-0.133 0.0418-0.266 0.0718-0.394zm-0.0981 0.563c-0.02 0.179-0.0322 0.361-0.0322 0.546-3.73e-4 -0.186 0.012-0.368 0.0322-0.546z" fill="#37a29c"/><path d="m5.27 16.4c-2-0.266-2.92-1.39-2.23-3.54-0.726 0.641-1.54 1.96-1.54 3.56v25.1c0 2.73 2.24 4.94 5 4.94h35c2.76 0 5-2.21 5-4.94v-20.2c0-2.73-2.24-4.94-5-4.94z" fill="url(#a)"/></svg>
